SVG_Azure_All/Application Insights Funnel.svg

<?xml version="1.0" encoding="UTF-8" standalone="no"?>
<!-- Generated by Microsoft Visio, SVG Export Application Insights Funnel.svg Page-1 -->

<svg
   xmlns:dc="http://purl.org/dc/elements/1.1/"
   xmlns:cc="http://creativecommons.org/ns#"
   xmlns:rdf="http://www.w3.org/1999/02/22-rdf-syntax-ns#"
   xmlns:svg="http://www.w3.org/2000/svg"
   xmlns="http://www.w3.org/2000/svg"
   xmlns:sodipodi="http://sodipodi.sourceforge.net/DTD/sodipodi-0.dtd"
   xmlns:inkscape="http://www.inkscape.org/namespaces/inkscape"
   width="0.79337418in"
   height="0.59055483in"
   viewBox="0 0 57.122701 42.520005"
   xml:space="preserve"
   class="st2"
   version="1.1"
   id="svg19"
   sodipodi:docname="Application Insights Funnel.svg"
   style="font-size:12px;overflow:visible;color-interpolation-filters:sRGB;fill:none;fill-rule:evenodd;stroke-linecap:square;stroke-miterlimit:3"
   inkscape:version="0.92.5 (2060ec1f9f, 2020-04-08)"><metadata
   id="metadata25"><rdf:RDF><cc:Work
       rdf:about=""><dc:format>image/svg+xml</dc:format><dc:type
         rdf:resource="http://purl.org/dc/dcmitype/StillImage" /></cc:Work></rdf:RDF></metadata><defs
   id="defs23" /><sodipodi:namedview
   pagecolor="#ffffff"
   bordercolor="#666666"
   borderopacity="1"
   objecttolerance="10"
   gridtolerance="10"
   guidetolerance="10"
   inkscape:pageopacity="0"
   inkscape:pageshadow="2"
   inkscape:window-width="640"
   inkscape:window-height="480"
   id="namedview21"
   showgrid="false"
   inkscape:zoom="1.9937982"
   inkscape:cx="38.083891"
   inkscape:cy="13.835448"
   inkscape:window-x="0"
   inkscape:window-y="0"
   inkscape:window-maximized="0"
   inkscape:current-layer="svg19" />
	<style
   type="text/css"
   id="style2">
	<![CDATA[
		.st1 {fill:#3999c6;stroke:none;stroke-linecap:butt;stroke-width:12.24}
		.st2 {fill:none;fill-rule:evenodd;font-size:12px;overflow:visible;stroke-linecap:square;stroke-miterlimit:3}
	]]>
	</style>

	<g
   id="g17"
   transform="translate(-12.23842,-12.244295)">
		<title
   id="title4">Page-1</title>
		<g
   id="group9575-1"
   transform="translate(12.4547,-34.0157)">
			<title
   id="title6">Application Insights Funnel</title>
			<g
   id="group9576-2">
				<title
   id="title8">Sheet.9576</title>
				<g
   id="shape9577-3">
					<title
   id="title10">Sheet.9577</title>
					<path
   d="m 4.47,54.76 h 47.76 c 0.63,0 1.22,-0.35 1.54,-0.91 l 2.92,-5.12 A 1.61255,1.64612 -180 0 0 55.3,46.26 H 1.4 A 1.61255,1.64612 -180 0 0 0,48.73 l 2.92,5.12 a 1.78511,1.82227 -180 0 0 1.55,0.91 z m 40.84,8.5 H 11.38 A 1.78511,1.82227 -180 0 0 9.84,66 l 2.77,4.86 c 0.32,0.56 0.91,0.91 1.54,0.91 h 28.39 c 0.64,0 1.22,-0.35 1.54,-0.91 L 46.85,66 A 1.78511,1.82227 -180 0 0 45.31,63.26 Z M 35.62,80.27 H 21.07 a 1.78511,1.82227 -180 0 0 -1.54,2.74 l 2.76,4.86 c 0.33,0.56 0.91,0.91 1.55,0.91 h 9.01 c 0.64,0 1.23,-0.35 1.55,-0.91 l 2.77,-4.86 a 1.78511,1.82227 -180 0 0 -1.55,-2.74 z"
   class="st1"
   id="path12"
   inkscape:connector-curvature="0"
   style="fill:#3999c6;stroke:none;stroke-width:12.23999977;stroke-linecap:butt" />
				</g>
			</g>
		</g>
	</g>
</svg>

<?xml version="1.0" encoding="UTF-8" standalone="no"?>
<!DOCTYPE svg PUBLIC "-//W3C//DTD SVG 1.1//EN" "http://www.w3.org/Graphics/SVG/1.1/DTD/svg11.dtd">
<!-- Generated by Microsoft Visio, SVG Export Application Insights Funnel.svg Page-1 -->
<svg xmlns="http://www.w3.org/2000/svg" xmlns:xlink="http://www.w3.org/1999/xlink" xmlns:ev="http://www.w3.org/2001/xml-events"
		width="1.13337in" height="1.23299in" viewBox="0 0 81.6023 88.7754" xml:space="preserve" color-interpolation-filters="sRGB"
		class="st2">
	<style type="text/css">
	<![CDATA[
		.st1 {fill:#3999c6;stroke:none;stroke-linecap:butt;stroke-width:12.24}
		.st2 {fill:none;fill-rule:evenodd;font-size:12px;overflow:visible;stroke-linecap:square;stroke-miterlimit:3}
	]]>
	</style>

	<g>
		<title>Page-1</title>
		<g id="group9370-1" transform="translate(12.4547,-34.0157)">
			<title>Application Insights Funnel</title>
			<g id="group9371-2">
				<title>Sheet.9371</title>
				<g id="shape9372-3">
					<title>Sheet.9372</title>
					<path d="M4.47 54.76 L52.23 54.76 C52.86 54.76 53.45 54.41 53.77 53.85 L56.69 48.73 A1.61255 1.64612 -180 0 0
								 55.3 46.26 L1.4 46.26 A1.61255 1.64612 -180 0 0 0 48.73 L2.92 53.85 A1.78511 1.82227 -180 0 0 4.47
								 54.76 ZM45.31 63.26 L11.38 63.26 A1.78511 1.82227 -180 0 0 9.84 66 L12.61 70.86 C12.93 71.42 13.52
								 71.77 14.15 71.77 L42.54 71.77 C43.18 71.77 43.76 71.42 44.08 70.86 L46.85 66 A1.78511 1.82227 -180
								 0 0 45.31 63.26 ZM35.62 80.27 L21.07 80.27 A1.78511 1.82227 -180 0 0 19.53 83.01 L22.29 87.87 C22.62
								 88.43 23.2 88.78 23.84 88.78 L32.85 88.78 C33.49 88.78 34.08 88.43 34.4 87.87 L37.17 83.01 A1.78511
								 1.82227 -180 0 0 35.62 80.27 Z" class="st1"/>
				</g>
			</g>
		</g>
	</g>
</svg>
